www/assets/icons/looks_two.svg

<svg xmlns="http://www.w3.org/2000/svg" width="24" height="24" viewBox="0 0 24 24" fill='currentColor'><path d="M19 3H5c-1.1 0-2 .9-2 2v14c0 1.1.9 2 2 2h14c1.1 0 2-.9 2-2V5c0-1.1-.9-2-2-2m-4 8a2 2 0 0 1-2 2h-2v2h4v2H9v-4a2 2 0 0 1 2-2h2V9H9V7h4a2 2 0 0 1 2 2z"/></svg>

<svg width="24" height="24" viewBox="0 0 24 24" xmlns="http://www.w3.org/2000/svg" fill='currentColor'><path d="M19 3H5C3.9 3 3 3.9 3 5V19C3 20.1 3.9 21 5 21H19C20.1 21 21 20.1 21 19V5C21 3.9 20.1 3 19 3ZM15 11C15 12.11 14.1 13 13 13H11V15H15V17H9V13C9 11.89 9.9 11 11 11H13V9H9V7H13C14.1 7 15 7.89 15 9V11Z"/></svg>
